lib/svgs/state-top.svg

<?xml version="1.0" encoding="UTF-8"?>
<svg width="16px" height="16px" viewBox="0 0 16 16" version="1.1" xmlns="http://www.w3.org/2000/svg" xmlns:xlink="http://www.w3.org/1999/xlink">
    <!-- Generator: sketchtool 51.3 (57544) - http://www.bohemiancoding.com/sketch -->
    <title>state-top</title>
    <desc>Created with sketchtool.</desc>
    <defs></defs>
    <g id="Icons" stroke="none" stroke-width="1" fill="none" fill-rule="evenodd">
        <g id="Deprecated" transform="translate(-56.000000, -200.000000)" fill="#000000">
            <g id="state-top" transform="translate(56.000000, 200.000000)">
                <path d="M8,0 C9.10416667,0 10.140625,0.208333333 11.109375,0.625 C12.078125,1.04166667 12.9270833,1.61458333 13.65625,2.34375 C14.3854167,3.07291667 14.9583333,3.921875 15.375,4.890625 C15.7916667,5.859375 16,6.89583333 16,8 C16,9.10416667 15.7916667,10.140625 15.375,11.109375 C14.9583333,12.078125 14.3854167,12.9270833 13.65625,13.65625 C12.9270833,14.3854167 12.078125,14.9583333 11.109375,15.375 C10.140625,15.7916667 9.10416667,16 8,16 C6.89583333,16 5.859375,15.7916667 4.890625,15.375 C3.921875,14.9583333 3.07291667,14.3854167 2.34375,13.65625 C1.61458333,12.9270833 1.04166667,12.078125 0.625,11.109375 C0.208333333,10.140625 0,9.10416667 0,8 C0,6.89583333 0.208333333,5.859375 0.625,4.890625 C1.04166667,3.921875 1.61458333,3.07291667 2.34375,2.34375 C3.07291667,1.61458333 3.921875,1.04166667 4.890625,0.625 C5.859375,0.208333333 6.89583333,0 8,0 L8,0 Z M11.03125,9.53125 C11.21875,9.36458333 11.2395833,9.16666667 11.09375,8.9375 L8.28125,5.5625 C8.17708333,5.45833333 8.0625,5.40625 7.9375,5.40625 C7.77083333,5.40625 7.65625,5.45833333 7.59375,5.5625 L4.90625,9.09375 C4.71875,9.32291667 4.73958333,9.52083333 4.96875,9.6875 C5.05208333,9.75 5.14583333,9.78125 5.25,9.78125 C5.375,9.78125 5.48958333,9.72916667 5.59375,9.625 L7.5,7.09375 L7.5,12.84375 C7.5,13.1145833 7.64583333,13.25 7.9375,13.25 C8.22916667,13.25 8.375,13.1145833 8.375,12.84375 L8.375,7.03125 L10.40625,9.46875 C10.59375,9.69791667 10.8020833,9.71875 11.03125,9.53125 L11.03125,9.53125 Z M10.75,4.4375 C11.0416667,4.4375 11.1875,4.29166667 11.1875,4 C11.1875,3.72916667 11.0416667,3.59375 10.75,3.59375 L5.25,3.59375 C4.95833333,3.59375 4.8125,3.72916667 4.8125,4 C4.8125,4.29166667 4.95833333,4.4375 5.25,4.4375 L10.75,4.4375 L10.75,4.4375 Z" id="Shape"></path>
            </g>
        </g>
    </g>
</svg>

<svg xmlns="http://www.w3.org/2000/svg" viewBox="0 0 16 16">
    <path d="M8 0c1.104 0 2.14.208 3.11.625a8.08 8.08 0 0 1 4.265 4.266C15.792 5.859 16 6.896 16 8s-.208 2.14-.625 3.11a8.08 8.08 0 0 1-4.266 4.265A7.785 7.785 0 0 1 8 16a7.785 7.785 0 0 1-3.11-.625 8.08 8.08 0 0 1-4.265-4.266A7.785 7.785 0 0 1 0 8c0-1.104.208-2.14.625-3.11A8.08 8.08 0 0 1 4.891.626 7.785 7.785 0 0 1 8 0zm3.031 9.531c.188-.166.209-.364.063-.594L8.28 5.563a.478.478 0 0 0-.344-.157c-.166 0-.28.052-.343.157l-2.688 3.53c-.187.23-.166.428.063.595a.457.457 0 0 0 .281.093c.125 0 .24-.052.344-.156L7.5 7.094v5.75c0 .27.146.406.438.406.291 0 .437-.135.437-.406V7.03l2.031 2.438c.188.229.396.25.625.062zm-.281-5.094c.292 0 .438-.145.438-.437 0-.27-.146-.406-.438-.406h-5.5c-.292 0-.438.135-.438.406 0 .292.146.438.438.438h5.5z"/>
</svg>
